X:1
T:Hyde, 77.77
T:Hyde, 77.77
T:Anonymous, 1850
T:Public Domain Courtesy of the Cyber Hymnal™
C:Anonymous, 1850
Z:Public Domain
Z:Courtesy of the Cyber Hymnal™
%%score ( 1 2 ) ( 3 4 )
L:1/8
Q:1/4=105
M:4/4
K:Eb
V:1 treble 
V:2 treble 
V:3 bass 
V:4 bass 
V:1
 [EG]2 [EG]2 [FA]>[EG] [DF]2 | (EF) (GA) B4 | [GB]2 [Ge]2 [Fd]2 (dc) | [FB]2 [F=A]2 [FB]4 | %4
 [EG]2 [EG]2 ([FA]>[EG]) [DF]2 | (EF)GA B4 | (Be) (dc) [GB]2 [FA]2 | [EG]2 [DF]2 [EG]4 |] %8
V:2
 x8 | EF x B4 x | x6 G2 | x8 | x8 | EF (GA) B4 | G2 A2 x4 | x8 |] %8
V:3
 [E,B,]2 [E,B,]2 [B,,B,]2 [B,,B,]2 | E,F,G,A, B,4 | [E,B,]2 [E,B,]2 [B,,B,]2 (B,C) | %3
 [F,D]2 [F,C]2 [B,,D]4 | [E,B,]2 [E,B,]2 [B,,B,]2 [B,,B,]2 | E,F,G,A, B,4 | %6
 [E,B,]2 [F,A,]2 [G,B,]2 [A,C]2 | B,2 [B,,B,]2 [E,B,]4 |] %8
V:4
 x8 | (E,F,)G,A, B,4 | x6 E,2 | x8 | x8 | (E,F,)(G,A,) B,4 | x8 | B,2 x6 |] %8

